assets/icons/qvision/looks.svg

<svg xmlns="http://www.w3.org/2000/svg" height="24" viewBox="0 0 24 24" width="24"><path d="M0 0h24v24H0z" fill="none"/><path d="M12 10c-3.86 0-7 3.14-7 7h2c0-2.76 2.24-5 5-5s5 2.24 5 5h2c0-3.86-3.14-7-7-7zm0-4C5.93 6 1 10.93 1 17h2c0-4.96 4.04-9 9-9s9 4.04 9 9h2c0-6.07-4.93-11-11-11z"/></svg>

<svg width="24" height="24" viewBox="0 0 24 24" fill="none" xmlns="http://www.w3.org/2000/svg">
<g clip-path="url(#clip0_147_3551)">
<path d="M12 10C8.14 10 5 13.14 5 17H7C7 14.24 9.24 12 12 12C14.76 12 17 14.24 17 17H19C19 13.14 15.86 10 12 10ZM12 6C5.93 6 1 10.93 1 17H3C3 12.04 7.04 8 12 8C16.96 8 21 12.04 21 17H23C23 10.93 18.07 6 12 6Z" fill="#323232"/>
</g>
<defs>
<clipPath id="clip0_147_3551">
<rect width="24" height="24" fill="white"/>
</clipPath>
</defs>
</svg>
